X: 22827
T: Larach Alastair
R: jig
M: 6/8
K: Adorian
|:A>BA a2 e|f2 d e>cA|Ac/B/A aee|g2e d>BG|
A>BA ae/e/e|fd/d/d ed/e/f|g>af g2 e|dBg dBG:|
|:AE/E/E cE/E/E|AEf ecA|Ae/e/e ce/e/e|BGg d>BG|
[1 Ae/e/e ce/e/e|de/e/e BGg|a>gf g2 e|dBg dBG:|
[2 EA/A/A cA/A/A|dA/A/A cge|a>gf g2e|dBg dBG||
Finish ~||A3 a. z2||

